X:1
T:General, The
M:6/8
L:1/8
B:Thompson's Compleat Collection of 200 Favourite Country Dances, vol. 3 (London, 1773)
Z:Transcribed and edited by Flynn Titford-Mock, 2007
Z:abc's:AK/Fiddler's Companion
K:A
edc cde | f2d Bcd | cBA ABc | B3 E3 | edc cde | f2d Bcd | cBA ABG | A3 [A,3A3] :|
|: EAA FAA | Bcd cBA | EAA FAA | edc B3 | EAA cee fga ecA | cBA ABG | A3 [A,3A3] :|

